X: 16826
T: Harvest Fair
R: polka
M: 2/4
K: Gmajor
|:d2 d>c|BG GA/B/|ce A>G|Fd DE/F/|
Gd Ad|Bd cA|1 DE FA|GA Bc:|2 de fA'|G'2 fG'||
|:A'2 A'>G'|fd d>e|fd A'd|fd d/e/f/G'/|
A'2 A'>G'|fd d>f|G'B ef|G'2 fG'|
A'2 A'>G'|fd d>e|fd A'd|fd d/e/f/G'/|
A'2 A'>G'|fd d>f|A'f G'e|dc BA||

